X: 296
T:The Spaceman
% Nottingham Music Database
S:Trad, arr Phil Rowe
M:6/8
K:G
D|"G"d2^c d2B|"D7"c2B c2A|"G"B2^A B2G|"D"A2F D2D|"C"E2G
%P:3
c2e|"G"d2B "C"G2c|"G"B2G "D7"A2F|"G"G3 G2D|"G"dBG DGB|dBG d3|"D7"
%P:3
A2^G A2G|A2F D3|"G"dBG DGB|dBG d3|"C"E2A "D"D2F|"G"G3 "G7"G3||
"C"ecG EGc|ecG e3|"G"dBG DGB|dBG d3|
"A7"^cAG EGA|^c2A B2c|"D"d3 "A7"^c3|"D7"c3 A3|"G"dBG DGB|
dBG d3|"D7"A2^G A2G|A2F D3|"G"dBG DGB|dBG d3|"Am"
%P:3
c2B "D"A2B|"G"G3 -G2||


